X: 1
T: the Fireworks (JJo5.031)
M: 6/8
L: 1/8
B: J.Johnson Choice Collection Vol 5, 1750
Z: vmp.Mike Hicken 2015 www.village-music-project.org.uk (Chords by John Chambers 2016-6)
K: C
%Q: 3/8=120
K: A
e "A"|\
"A"cAc "E7"dBG | "E7"GEG "D"A2D | "A"CEA "E7"B,AG | "A"AEC "(E7)"A,2e |\
"A"cAc "E7"dBA | "E7"GEG "D"A2D | "A"CEA "E7"B,2G | "A"!fermata!A3 A,2 |]
B "B"|\
"E"efg "F#m"afe | "B7"^dBd "A"e2A | "E"GBe "B7"Fe^d | "F#m"cfe "B7"^dcB |\
"E"efg "F#m"afe | "B7"^dBd "A"e2A | "E"GBe "B7"F2^d | "E"e3 "E7"z2e/!D.C.!=d/ |]
